X: 29286
T: New Rigged Ship, The
R: jig
M: 6/8
K: Dmajor
ded d2f|ded d2f|ecA Ace|ecA ABc|
ded d2f|ded d2f|ecA ABc|d3 d3:|
|:a2f a2f|ded dga|b2g b2g|efe efg|
a2f a2f|ded g3|ecA ABc|d3 d3:|

